X:7
T:Advance Australia Fair
T:1886
C:Peter Dodds McCormack
C:(1833-1916)
L:1/4
M:4/4
I:linebreak $
K:D
D G D B, | D G- G/G/ G | B A G F | G A2 z | D G D B, | G, D- D/D/ D | B A G F | E D z2 | 
D E- E/F/ G |$ E D- D/B,/ B, | D E G =c | B A z2 | D E- E/F/ G | E D- D/G/ G | A B- B/G/ A- | 
A/F/ G3 | B =c B A | G F E D |$ G B- B/G/ A- | A/F/ G3 |] 





